svgs/insta.svg

<?xml version="1.0" encoding="UTF-8"?>
<svg id="Layer_1" data-name="Layer 1" xmlns="http://www.w3.org/2000/svg" viewBox="0 0 87 87">
  <defs>
    <style>
      .cls-1 {
        fill: #fff;
      }
    </style>
  </defs>
  <path class="cls-1" d="M61.73,0H25.27C9.44,0,0,9.44,0,25.27V61.68c0,15.88,9.44,25.32,25.27,25.32H61.68c15.83,0,25.27-9.44,25.27-25.27V25.27c.04-15.83-9.4-25.27-25.23-25.27Zm-18.23,60.38c-9.31,0-16.88-7.57-16.88-16.88s7.57-16.88,16.88-16.88,16.88,7.57,16.88,16.88-7.57,16.88-16.88,16.88Zm25.75-39.15c-.22,.52-.52,1-.91,1.44-.43,.39-.91,.7-1.44,.91-.52,.22-1.09,.35-1.65,.35-1.17,0-2.26-.43-3.09-1.26-.39-.43-.7-.91-.91-1.44-.22-.52-.35-1.09-.35-1.65s.13-1.13,.35-1.65c.22-.57,.52-1,.91-1.44,1-1,2.52-1.48,3.91-1.17,.3,.04,.57,.13,.83,.26,.26,.09,.52,.22,.78,.39,.22,.13,.43,.35,.65,.52,.39,.43,.7,.87,.91,1.44,.22,.52,.35,1.09,.35,1.65s-.13,1.13-.35,1.65Z"/>
</svg>

<?xml version="1.0" encoding="utf-8"?>
<!-- Generator: Adobe Illustrator 28.0.0, SVG Export Plug-In . SVG Version: 6.00 Build 0)  -->
<svg version="1.1" id="Layer_1" xmlns="http://www.w3.org/2000/svg" xmlns:xlink="http://www.w3.org/1999/xlink" x="0px" y="0px"
	 viewBox="0 0 87 87" style="enable-background:new 0 0 87 87;" xml:space="preserve">
<style type="text/css">
	.st0{fill:#FCF2E0;}
</style>
<path class="st0" d="M61.7,0H25.3C9.4,0,0,9.4,0,25.3v36.4C0,77.6,9.4,87,25.3,87h36.4c15.8,0,25.3-9.4,25.3-25.3V25.3
	C87,9.4,77.5,0,61.7,0L61.7,0z M43.5,60.4c-9.3,0-16.9-7.6-16.9-16.9s7.6-16.9,16.9-16.9s16.9,7.6,16.9,16.9S52.8,60.4,43.5,60.4z
	 M69.2,21.2c-0.2,0.5-0.5,1-0.9,1.4c-0.4,0.4-0.9,0.7-1.4,0.9c-0.5,0.2-1.1,0.4-1.7,0.4c-1.2,0-2.3-0.4-3.1-1.3
	c-0.4-0.4-0.7-0.9-0.9-1.4c-0.2-0.5-0.3-1.1-0.3-1.6s0.1-1.1,0.3-1.6c0.2-0.6,0.5-1,0.9-1.4c1-1,2.5-1.5,3.9-1.2
	c0.3,0,0.6,0.1,0.8,0.3c0.3,0.1,0.5,0.2,0.8,0.4c0.2,0.1,0.4,0.3,0.7,0.5c0.4,0.4,0.7,0.9,0.9,1.4c0.2,0.5,0.3,1.1,0.3,1.6
	S69.5,20.7,69.2,21.2L69.2,21.2z"/>
</svg>
